X:219
%%annotationfont Times-Roman 13
T:Da Auld Peat Road
C:Joe Buchanan's Scottish Tome - Page 287.3
I:287 3
Z:Carl Allison
C:Tom Anderson
R:Jig
L:1/8
M:6/8
K:G
A | "Am"EAA ABc | "Am"BAG A2 A | "G"DGG GFG | "G"Bge dBG |
W:2nd time 2nd part
%%vskip 5
[2 "Am"EAA ABc | "Am"BAG A2 =f | "E7"edc dcB | "Am"A3 A :|
e | "Am"a^ga ecA | "G"gfg dBG | "Am"a^ga ecA | "G"def gfg |
"Am"a^ga ecA | "G"gfg dBG | "Am"edc  "E7"dcB | "Am"A3 A :|
